!!!COM: Bach, Johann Sebastian
!!!OPR: Das wohltemperirte Clavier, Band II
!!!XEN: Well-Tempered Clavier, Volume II
!!!OTL: Prelude in A Minor
!!!OMV: Prelude XX
!!!SCT: BWV 889
!!!SCA: Thematisch-systematisches Verzeichnis der musikalischen Werke Johann Sebastian Bach: Bach-Werke-Verzeichnis (Schmieder)
!!!YOR: Bach Gesellschaft Edition xiv
!!!EED: Walter Hewlett
!!!ENC: Walter Hewlett
!!!CDT: 1685/3//-1750/7/28/
!!!OCY: Deutschland
!!!YEC: Copyright (c) 1994, 2000 Center for Computer Assisted Research in the Humanities
!!!YEM: Rights to all derivative editions reserved
!!!YEM: Refer to licensing agreement for further details
!!!YEN: United States of America
**kern
*I:
*>[A,B,B]
*>A
*clefG6
*k[]
*a:
*M4/4
=1-
*^
32r	8AA\L
32cc\LLL	.
32dd\	.
32ee\J	.
16ff\	8A\
16cc\JJ	.
16b\LL	8G#\
16dd#\	.
16ee\	8Gn\J
16b-\JJ	.
16a\LL	8F#\L
16cc#\	.
16ddn\	8Fn\
[16g#\JJ	.
16g#/LK]	8E\
8a/	.
.	[8D\J
16bn/Jk	.
=2	=2
8e/L	32D\LLL]
.	32C\
.	32D\
.	32E\J
8a/	16F\
.	16C\JJ
8g#/	16BB/LL
.	16D#/
8gn/J	16E/
.	16BB-/JJ
8f#/L	16AA/LL
.	16C#/
8fn/	16Dn/
.	[16GG#/JJ
8e/	16GG#/LK]
.	8AA/
[8d/J	.
.	16BBn/Jk
=3	=3
16d/LL]	8EE/L
32c/L	.
32B/J	.
16c/	8AA/
[16a/JJ	.
16a/LL]	8BB/
16g#/	.
16ee/	8C#/J
[16gn/JJ	.
16g/LL]	8D/L
32f/L	.
32e/J	.
16d#/	8BB/
[16b/JJ	.
16b/LL]	8C#/
16a#/	.
16ff#/	8D#/J
[16an/JJ	.
=4	=4
32a/LLL]	8E\L
32g/	.
32a/	.
32b/J	.
16cc/	8e\
16g/JJ	.
16f#/LL	8d#\
16a#/	.
16b/	8dn\J
16fn/JJ	.
16e/LL	8c#\L
16g#/	.
16an/	8cn\
[16d#/JJ	.
16d#/LK]	8B\
8e/	.
.	[8A\J
16f#/Jk	.
=5	=5
8B\L	32A\LLL]
.	32G\
.	32A\
.	32B\J
8ee\	16c\
.	16G\JJ
8dd#\	16F#\LL
.	16A#\
8ddn\J	16B\
.	16Fn\JJ
8cc#\L	16E\LL
.	16G#\
8ccn\	16An\
.	[16D#\JJ
8b\	16D#\LK]
.	8E\
[8a\J	.
.	16F#\Jk
=6	=6
16a/LL]	8BB\L
32g/L	.
32f#/J	.
16g/	8E\
[16ee/JJ	.
16ee\LL]	8F#\
16dd#\	.
16bb\	8G#\J
[16ddn\JJ	.
16dd\LL]	16A\LL
32cc\L	16AA\J
32b\J	.
16cc\	[8A\J
16a\JJ	.
8b\L	16A\LL]
.	16G#\
8cc#\J	16e\
.	[16Gn\JJ
=7	=7
16dd/LL	16G\LL]
16d/J	32F#\L
.	32E\J
[8dd/J	16F#\
.	16D\JJ
16dd\LL]	8E\L
16cc#\	.
16aa\	8F#\J
[16ccn\JJ	.
16cc\LL]	16G\LL
32b\L	16GG\J
32a\J	.
16b\	[8G\J
16g\JJ	.
8a\L	16G\LL]
.	16F#\
8b\J	16d\
.	[16Fn\JJ
=8	=8
8cc\L	32F\LLL]
.	32E\
.	32F\
.	32G\J
8ccc\	16A\
.	16E\JJ
8bb\	16D#\LL
.	16F#\
8bb-\J	16G\
.	16Dn\JJ
8aa\L	16C#/LL
.	16E/
8aa-\	16Fn/
.	[16Cn/JJ
8gg\	16C/LK]
.	8BB/
[8ff\J	.
.	32C/LL
.	32D/JJJ
=9	=9
32ff\LLL]	8GG\L
32b\	.
32cc\	.
32dd\J	.
16ee\	8G\
16b\JJ	.
16a#\LL	8F#\
16cc#\	.
16dd\	8Fn\J
16an\JJ	.
16g#/LL	8E\L
16b/	.
16ccn/	8E-\
[16gn/JJ	.
16g/LK]	8D\
8f#/	.
.	[8C\J
32g/LL	.
32a/JJJ	.
=10	=10
8d/L	16C/LL]
.	32BB/L
.	32AA/J
8g/	16BB/
.	[16G/JJ
8a/	16G\LL]
.	16F#\
8b/J	16d\
.	[16Fn\JJ
8cc\L	16F\LL]
.	32E\L
.	32D\J
8a\	16C#\
.	[16A\JJ
8b\	16A\LL]
.	16G#\
8cc#\J	16e\
.	[16Gn\JJ
=11	=11
8dd/L	32G\LLL]
.	32F#\
.	32G\
.	32A\J
8d/	16B-\
.	16Fn\JJ
8c#/	16E\LL
.	16G#\
8cn/J	16A\
.	16E-\JJ
8B/L	16D\LL
.	16F#\
8B-/	16Gn\
.	[16C#\JJ
8A/	16C#\LK]
.	8D\
[8G/J	.
.	16En\Jk
=12	=12
16G/LL]	8AA\L
32F/L	.
32E/J	.
16F/	8D\
[16d\JJ	.
16d/LL]	8E\
16c#/	.
16a/	8F#\J
[16cn/JJ	.
16c/LL]	8G\L
32B/L	.
32A/J	.
16G#/	8E\
[16e/JJ	.
16e/LL]	8F#\
16d#/	.
16b/	8G#\J
[16dn/JJ	.
=13	=13
32d/LLL]	16A\LL
32c/	.
32d/	16AA\J
32e/J	.
16f/	8A\J
16c/JJ	.
16B/LL	8G#\L
16d#/	.
16e/	8Gn\J
16B-/JJ	.
16A/LL	8F#\L
16c#/	.
16dn/	8Fn\
[16G#/JJ	.
16G#/LK]	8E\
8A/	.
.	[8D\J
16Bn/Jk	.
=14	=14
8E/L	16D\LL]
.	32C\L
.	32BB\J
8e/	16C\
.	[16E\JJ
8f#/	16E\LL]
.	16D#\
8g#/J	16B\
.	[16Dn\JJ
16a/LL	16D/LL]
16A/J	32C#/L
.	32BB/J
[8a/J	16C#/
.	16AA/JJ
16a/LL]	8BB/L
16g#/	.
16ee/	8C#/J
[16gn/JJ	.
=15	=15
16g/LL]	16D/LL
32f#/L	16DD/J
32e/J	.
16f#/	[8D/J
16d/JJ	.
8e/L	16D/LL]
.	16C#/
8f#/J	16A/
.	[16Cn/JJ
16g/LL	16C/LL]
16G/J	32BB/L
.	32AA/J
[8g/J	16BB/
.	16GG/JJ
16g/LL]	8AA/L
16f#/	.
16dd/	8BB/J
[16fn/JJ	.
=16	=16
*^	*
16f/LL]	2r	8.C/L
32e/L	.	.
32d/J	.	.
16e/	.	.
[16ee/JJ	.	32BB/LL
.	.	32AA/JJJ
16ee/LL]	.	4FT\
32ff/L	.	.
32ee/	.	.
32dd/	.	.
32cc/	.	.
32b/	.	.
32a/JJJ	.	.
2g#/	32r	32E\
.	32e\LLL	32ryy
.	32d\	16ryy
.	32c\	.
.	32B/	8ryy
.	32A/	.
.	32G#/	.
.	32F#/JJJ	.
.	8E/L	4ryy
.	8EE/J	.
=17:!!:	=17:!!:	=17:!!:
*v	*v	*
*>B	*
8ee/L	32r
.	32c\LLL
.	32B\
.	32A\J
8e/	16G#\
.	16c#\JJ
8f/	16d\LL
.	16B-\
8f#/J	16A\
.	16d#\JJ
8g/L	16e\LL
.	16cn\
8g#/	16Bn\
.	[16f\JJ
8a/	16f\LK]
.	8e\
8b/J	.
.	16dn\Jk
=18	=18
32cc\LLL	8a\L
32ff\	.
32ee\	.
32dd\J	.
16cc#\	8A\
16ff#\JJ	.
16gg\LL	8B-\
16ee-\	.
16dd\	8Bn\J
16gg#\JJ	.
16aa\LL	8c\L
16ffn\	.
16een\	8c#\
[16bb-\JJ	.
16bb-\LK]	8d\
8aa\	.
.	8e\J
16gg#\Jk	.
=19	=19
32aa\LLL	8f\L
32ggn\	.
32ff\	.
32ee\J	.
16ff\	8d\
16b-\JJ	.
16a\LL	8c\
16ee\	.
16dd\	8B\J
[16g#\JJ	.
32g#\LLL]	8A\L
32dd\	.
32cc\	.
32bn\J	.
16a\	8c\
16ee\JJ	.
16dd/LL	8B\
16gn/	.
16f#/	8A\J
16cc/JJ	.
=20	=20
8b\L	32G\LLL
.	32B\
.	32c\
.	32d\J
8gg\	16e\
.	16B-\JJ
8ff\	16A\LL
.	16d\
8ee\J	16c#\
.	[16G\JJ
8dd\L	32G\LLL]
.	32g\
.	32f\
.	32e\J
8ff\	16d\
.	16g#\JJ
8ee\	16a\LL
.	16cn\
[8dd\J	16Bn\
.	16f\JJ
=21	=21
8dd\L]	32e\LLL
.	32d\
.	32c\
.	32B\J
16cc\L	16A\
16b\JJ	16G#\JJ
8cc\L	16A\LL
.	16F\
8cc#\J	16E\
.	16A#\JJ
8dd\L	16B\LL
.	16Gn\
8dd#\	16F#\
.	[16c\JJ
8ee\	16c\LK]
.	8B\
8ff#\J	.
.	16An\Jk
=22	=22
32gg\LLL	8e\L
32ffn\	.
32ee\	.
32dd\J	.
16cc#\	8E\
16gg#\JJ	.
16aa\LL	8F\
16ee-\	.
16dd\	8F#\J
16aa#\JJ	.
16bb\LL	8G\L
16ffn\	.
16een\	8G#\
[16dd\JJ	.
16dd\LK]	8A\
8ccn\	.
.	8B\J
[16b\Jk	.
=23	=23
16b/LL]	8c\L
32a/L	.
32b/J	.
16cc/	8A\
16d#/JJ	.
16e/LL	8G\
16cc#/	.
16ddn/	8F\J
16f/JJ	.
8g/L	32E\LLL
.	32F\
.	32G\
.	32A\J
8dd/	16B-\
.	16F\JJ
8cc#/	16E\LL
.	16A\
[8b-/J	16G\
.	16D\JJ
=24	=24
32b-/LLL]	8C#\L
32a/	.
32g/	.
32a/J	.
16b-/	8G\
16c#/JJ	.
16d/LL	8F\
16bn/	.
16ccn/	8E\J
16e/JJ	.
8f#/L	32D\LLL
.	32E\
.	32F#\
.	32G\J
8cc/	16A\
.	16E-\JJ
8b/	16D\LL
.	16G\
[8a-/J	16Fn\
!	! F#3 in some sources
.	16Cn\JJ
=25	=25
32a-/LLL]	8BB/L
32g/	.
32an/	.
32b/J	.
16cc/	8E/
16g/JJ	.
16f#/LL	8D#/
16a#/	.
16b/	8Dn/J
16fn/JJ	.
16e/LL	8C#/L
16g#/	.
16an/	8Cn/
[16d#/JJ	.
16d#/LK]	8BB/
8e/	.
.	[8AA/J
16fn/Jk	.
=26	=26
8B\L	32AA/LLL]
.	32C/
.	32BB/
.	32AA/J
8ee\	16GG#/
.	16C#/JJ
8ff\	16D/LL
.	16BB-/
8ff#\J	16AA/
.	16D#/JJ
8gg\L	16E\LL
.	16Cn\
8gg#\	16BBn\
.	[16F\JJ
8aa\	16F\LK]
.	8E\
[8bb\J	.
.	16Dn\Jk
=27	=27
16bb\LL]	8C\L
32aa\L	.
32bb\J	.
16ccc\	8E\
[16ee\JJ	.
16ee\LL]	8F#\
16dd#\	.
16bb\	8G#\J
[16ddn\JJ	.
32dd\LLL]	8A/L
32cc\	.
32dd\	.
32ee\J	.
16ff\	8AA/
[16a\JJ	.
16a/LL]	8BB/
16g#/	.
16ee/	8C#/J
[16gn/JJ	.
=28	=28
32g/LLL]	8D/L
32f/	.
32g/	.
32a/J	.
16b-/	8DD/
[16d/JJ	.
16d/LL]	8EE/
16c#/	.
16a/	8E/J
[16cn/JJ	.
16c/LL]	8D#/L
16Bn/	.
16g#/	8Dn/
[16B/JJ	.
16B/LL]	8C#/
16A/	.
16fn/	8Cn/J
[16A/JJ	.
=29	=29
16A/LL]	8BB/L
32G#/L	.
32F#/J	.
16G#/	8BB/
[16d/JJ	.
32d/LLL]	8AA/
32c/	.
32B/	.
32A/J	.
16B/	8AA/J
[16fn/JJ	.
32f/LLL]	8GG#/L
32e/	.
32d/	.
32c#/J	.
16d/	8GG#/
[16b/JJ	.
32b/LLL]	8EE/
32a/	.
32g#/	.
32f#/J	.
16g#/	8EE/J
[16dd/JJ	.
=30	=30
16dd\LL]	[8AA/L
32cc\L	.
32b\J	.
16cc\	32AA/LL]
.	32D/
16a\JJ	32E/
.	32F#/JJJ
8b-\L	16G\LL
.	16E\
8bn\J	16D#\
.	16G#\JJ
8cc\L	16A\LL
.	16Fn\
8cc#\	16E\
.	[16B-\JJ
8dd\	16B-\LK]
.	8A\
[8ee\J	.
.	16Gn\Jk
=31	=31
32ee\LLL]	32F\LLL
32cc#\	32E\
32dd\	32F\
32ee\J	32G\JJ
16ff\	8A\J
16ccn\JJ	.
16b\LL	8G#\L
16dd#\	.
16ee\	8Gn\J
16b-\JJ	.
16a\LL	8F#\L
16cc#\	.
16ddn\	8Fn\
[16g#\JJ	.
16g#/LK]	8E\
8a/	.
.	[8D\J
16bn/Jk	.
=32	=32
16e\LL	16D/LL]
[16ee\	32C/L
.	32BB/J
32ee\L]	16C/
32dd\	.
32cc\	16AA/JJ
32b\JJJ	.
32dd\LLL	8EM/L
32cc\	.
32b\	.
32a\	.
32cc\	8EE/J
32b\	.
32a\	.
32g#\JJJ	.
2a/	16AA\LL
.	32BB\L
.	32C\
.	32D\
.	32E\
.	32F#\
.	32G#\JJJ
.	8A\L
.	8AA\J
==:|!	==:|!
*-	*-
!!!RWG: Key is interpreted using the Humdrum key tool.
!!!AFT: stage2
!!!END: 1994/02/15/
!!format changes:
!!content changes:
!!public access: complete
!!!KEY: 881757761
!!!EMD: Converted from MuseData to Humdrum Dec 19, 2000, by Andreas Kornstaedt using muse2kern.
